X:157
T:Polska efter Victorin
R:sl\"angpolska
H:efter sergeant Victorin. SvL Sk{\aa}ne 567
A:Sk{\aa}ne
Z:id:hn-sp-157
M:3/4
L:1/16
K:Gm
d2de d2de d2d2 | d2de d2de d2d2 | d2de f2fg g4 :|
|: b4 a2gg g2f2 | f2ee g2ee e2d2 | d2de g2ee e2d2 | dfed d4 c4 :|
<end>
<start>
